flaticon/household/fridge-2.svg

<svg xmlns="http://www.w3.org/2000/svg" width="32" height="32" viewBox="0 0 24 24">
    <path d="M 17.023438 0 L 6.976562 0 C 6.328125 0 5.800781 0.527344 5.800781 1.175781 L 5.800781 22.824219 C 5.800781 23.472656 6.328125 24 6.976562 24 L 17.023438 24 C 17.671875 24 18.199219 23.472656 18.199219 22.824219 L 18.199219 1.175781 C 18.199219 0.527344 17.671875 0 17.023438 0 Z M 17.398438 22.824219 C 17.398438 23.03125 17.230469 23.199219 17.023438 23.199219 L 6.976562 23.199219 C 6.769531 23.199219 6.601562 23.03125 6.601562 22.824219 L 6.601562 14.800781 L 17.398438 14.800781 Z M 6.601562 14 L 6.601562 1.175781 C 6.601562 0.96875 6.769531 0.800781 6.976562 0.800781 L 17.023438 0.800781 C 17.230469 0.800781 17.398438 0.96875 17.398438 1.175781 L 17.398438 14 Z M 6.601562 14"/>
    <path d="M7.398438 8.398438C7.179688 8.398438 7 8.578125 7 8.800781 7 9.019531 7.179688 9.199219 7.398438 9.199219 7.621094 9.199219 7.800781 9.378906 7.800781 9.601562L7.800781 12C7.800781 12.222656 7.621094 12.398438 7.398438 12.398438 7.179688 12.398438 7 12.578125 7 12.800781 7 13.019531 7.179688 13.199219 7.398438 13.199219 8.0625 13.199219 8.601562 12.660156 8.601562 12L8.601562 9.601562C8.601562 8.9375 8.0625 8.398438 7.398438 8.398438zM7.398438 19.601562C7.179688 19.601562 7 19.777344 7 20 7 20.222656 7.179688 20.398438 7.398438 20.398438 8.0625 20.398438 8.601562 19.863281 8.601562 19.199219L8.601562 16.800781C8.601562 16.136719 8.0625 15.601562 7.398438 15.601562 7.179688 15.601562 7 15.777344 7 16 7 16.222656 7.179688 16.398438 7.398438 16.398438 7.621094 16.398438 7.800781 16.578125 7.800781 16.800781L7.800781 19.199219C7.800781 19.421875 7.621094 19.601562 7.398438 19.601562zM12.199219 2.398438L11.398438 2.398438C11.179688 2.398438 11 2.578125 11 2.800781 11 3.019531 11.179688 3.199219 11.398438 3.199219L12.199219 3.199219C12.421875 3.199219 12.601562 3.019531 12.601562 2.800781 12.601562 2.578125 12.421875 2.398438 12.199219 2.398438zM12.199219 2.398438"/>
</svg>

<svg xmlns="http://www.w3.org/2000/svg" width="32" height="32" viewBox="0 0 24 24">
    <path d="M17.023 0H6.977C6.328 0 5.8.527 5.8 1.176v21.648c0 .649.527 1.176 1.176 1.176h10.046c.649 0 1.176-.527 1.176-1.176V1.176C18.2.527 17.672 0 17.023 0zm.375 22.824a.375.375 0 0 1-.375.375H6.977a.375.375 0 0 1-.375-.375v-8.023h10.796zM6.602 14V1.176c0-.207.168-.375.375-.375h10.046c.207 0 .375.168.375.375V14zm0 0"/>
    <path d="M7.398 8.398a.401.401 0 0 0 0 .801c.223 0 .403.18.403.403V12c0 .223-.18.398-.403.398a.401.401 0 0 0 0 .801c.665 0 1.204-.539 1.204-1.199V9.602c0-.665-.54-1.204-1.204-1.204zm0 0M7.398 19.602a.398.398 0 1 0 0 .796A1.2 1.2 0 0 0 8.602 19.2v-2.398a1.2 1.2 0 0 0-1.204-1.2.398.398 0 1 0 0 .797c.223 0 .403.18.403.403v2.398c0 .223-.18.403-.403.403zm0 0M12.2 2.398h-.802a.401.401 0 0 0 0 .801h.801a.401.401 0 1 0 0-.8zm0 0"/>
</svg>
